packages/core/src/svgs/tokens/branded/GFT.svg

<svg width="24" height="24" viewBox="0 0 24 24" fill="none" xmlns="http://www.w3.org/2000/svg">
<path d="M12.0001 2.99437L20.0057 7.49438V16.5055L12.0057 21.0055L3.99463 16.5055V7.49438L12.0001 2.99993V2.99437Z" fill="#DFF8DA"/>
<path d="M5.87814 12.8278L3.48926 10.0944L7.72815 9.29446L5.87814 12.8278Z" fill="#3B896A"/>
<path d="M7.55518 18.4445V12.15L12.2052 3.86667L16.1496 11.5889L7.55518 18.4445Z" fill="#4ED9AB"/>
<path d="M17.3273 18.5722L12.1162 15.65L16.3274 12.4389L17.3273 18.5722Z" fill="#3B896A"/>
<path d="M16.4938 11.2722L14.8882 8.13334L19.6438 9.15001L16.4938 11.2722Z" fill="#4CDAC7"/>
<path d="M6.83372 11.6778L4.44482 8.94446L8.68372 8.14445L6.83372 11.6778Z" fill="#4ED9AB"/>
<path fill-rule="evenodd" clip-rule="evenodd" d="M20.8887 7.00001L11.9997 2L3.11084 7.00001V17.0001L11.9997 22L20.8887 17.0001V7.00001ZM19.7775 7.60557L11.9997 3.20556L4.22195 7.60557V16.3888L11.9997 20.7889L19.7775 16.3888V7.60557Z" fill="#4EDBC8"/>
</svg>

<svg xmlns="http://www.w3.org/2000/svg" width="24" height="24" fill="none" viewBox="0 0 24 24">
    <path fill="#DFF8DA" d="m12 2.994 8.006 4.5v9.012l-8 4.5-8.011-4.5V7.494L12 3z"/>
    <path fill="#3B896A" d="M5.878 12.828 3.49 10.094l4.24-.8z"/>
    <path fill="#4ED9AB" d="M7.555 18.445V12.15l4.65-8.283 3.945 7.722z"/>
    <path fill="#3B896A" d="m17.327 18.572-5.21-2.922 4.21-3.211z"/>
    <path fill="#4CDAC7" d="m16.494 11.272-1.606-3.139 4.756 1.017z"/>
    <path fill="#4ED9AB" d="m6.834 11.678-2.39-2.734 4.24-.8z"/>
    <path fill="#4EDBC8" fill-rule="evenodd" d="m20.889 7-8.89-5-8.888 5v10L12 22l8.889-5zm-1.111.606L12 3.206l-7.778 4.4v8.783l7.778 4.4 7.778-4.4z" clip-rule="evenodd"/>
</svg>
